X:1     %Music
T:Three Maidens a-milking did go
B:Kidson F, 1891, Traditional Tunes, Oxford, Taphouse and Son
Z:Frank Kidson
S:Mr Holgate
F:http://www.folkinfo.org/songs
M:4/4     %Meter
L:1/8     %
K:G
D |G2 G G (FG) A B |G6 z G |B2 B B (dB) G G | A6 z
w:Three maid-ens a-milk-* ing did go Three maid-ens a-milk-* ing did go;
 A |B A (Bc) d2 B G |c A (BG) D2
w:The wind_ it blew high, and the wind_ it blew low,
 E F |G2 (A/B/) c B G A A |G6 |]
w:And it blew these_ three maid-ens to and fro 